communes/157.svg

<?xml version="1.0" encoding="UTF-8" standalone="no"?>
<svg
   xmlns:dc="http://purl.org/dc/elements/1.1/"
   xmlns:cc="http://creativecommons.org/ns#"
   xmlns:rdf="http://www.w3.org/1999/02/22-rdf-syntax-ns#"
   xmlns:svg="http://www.w3.org/2000/svg"
   xmlns="http://www.w3.org/2000/svg"
   xmlns:sodipodi="http://sodipodi.sourceforge.net/DTD/sodipodi-0.dtd"
   xmlns:inkscape="http://www.inkscape.org/namespaces/inkscape"
   version="1.0"
   width="212.51463"
   height="248.92773"
   id="svg2780"
   sodipodi:docname="157.svg">
  <metadata
     id="metadata22">
    <rdf:RDF>
      <cc:Work
         rdf:about="">
        <dc:format>image/svg+xml</dc:format>
        <dc:type
           rdf:resource="http://purl.org/dc/dcmitype/StillImage" />
      </cc:Work>
    </rdf:RDF>
  </metadata>
  <sodipodi:namedview
     pagecolor="#ffffff"
     bordercolor="#666666"
     borderopacity="1"
     objecttolerance="10"
     gridtolerance="10"
     guidetolerance="10"
     inkscape:pageopacity="0"
     inkscape:pageshadow="2"
     inkscape:window-width="640"
     inkscape:window-height="480"
     id="namedview20" />
  <defs
     id="defs2782" />
  <g
     transform="translate(-13.644406,-801.31095)"
     id="layer1">
    <path
       d="M 14.644406,802.31095 L 18.471939,963.10112 C 21.205884,1077.9512 218.59754,1077.9512 221.3315,963.10112 L 225.15904,802.31095 L 14.644406,802.31095 z "
       style="fill:#008bd1;fill-opacity:1;fill-rule:evenodd;stroke:#000000;stroke-width:1.99999988;stroke-linecap:butt;stroke-miterlimit:4;stroke-dashoffset:0;stroke-opacity:1"
       id="path3282" />
    <path
       d="M 81.405475,180.1936 C 79.277213,180.74696 78.801759,179.93433 78.280932,178.38872 C 77.786684,176.92199 75.782339,178.88267 75.150292,180.89841 C 73.827039,172.31115 88.571035,171.55968 94.70875,170.67867"
       transform="translate(0,804.33069)"
       style="opacity:1;color:#000000;fill:#d80025;fill-opacity:1;fill-rule:evenodd;stroke:#000000;stroke-width:0.99921262;stroke-linecap:butt;stroke-linejoin:round;marker:none;marker-start:none;marker-mid:none;marker-end:none;stroke-miterlimit:4;stroke-dasharray:none;stroke-dashoffset:0;stroke-opacity:1;visibility:visible;display:inline;overflow:visible;enable-background:accumulate"
       id="path5182" />
    <path
       d="M 105.59681,839.75896 C 103.3364,854.72212 79.942728,868.28021 72.419156,880.21251 C 73.49256,880.1215 74.871632,879.11988 76.067796,878.27429 C 73.32018,883.86835 71.513204,888.95677 69.952323,894.4849 C 70.721944,894.30574 71.927643,893.12983 72.572671,892.45229 C 70.891702,896.71067 71.141938,910.87426 71.890549,914.57197 C 72.844546,912.58213 73.300168,910.34311 74.004977,908.22868 C 75.523104,915.75204 78.847843,921.4065 82.110284,927.43474 C 82.169018,925.43778 82.227752,923.44082 82.286486,921.44386 C 86.682584,928.77677 92.262325,935.42441 99.025707,940.82611 C 98.144695,938.88789 97.824356,937.51033 96.943344,935.57211 C 103.95937,941.36195 111.16229,945.22059 118.86358,947.70869 L 118.86358,953.03568 C 118.86358,954.0929 119.64139,954.21353 120.69859,954.21749 L 129.25067,954.24955 L 140.87117,951.46055 C 155.68791,953.22994 170.6206,954.20602 185.54105,953.68888 C 187.60916,956.768 191.29699,958.97495 194.17496,961.61799 C 195.99572,961.26558 197.81647,960.91318 199.63723,960.56077 C 183.97314,939.54638 161.85339,913.31987 145.23164,900.13406 C 128.60989,886.94826 121.39447,875.6883 99.906719,881.44593 C 97.990591,881.95935 97.457797,880.22069 98.320898,879.1553 C 104.96602,870.95276 116.18762,854.79631 120.33916,844.71186 C 124.46879,834.68065 120.57431,819.35858 109.77405,816.77967 C 99.032715,814.21484 90.270448,820.64166 89.863186,829.11384 C 93.005461,830.05358 95.883432,829.84801 99.025707,829.29004"
       style="opacity:1;color:#000000;fill:#ffffff;fill-opacity:1;fill-rule:evenodd;stroke:#000000;stroke-width:0.99921262;stroke-linecap:butt;stroke-linejoin:round;marker:none;marker-start:none;marker-mid:none;marker-end:none;stroke-miterlimit:4;stroke-dasharray:none;stroke-dashoffset:0;stroke-opacity:1;visibility:visible;display:inline;overflow:visible;enable-background:accumulate"
       id="path2242" />
    <path
       d="M 89.863186,24.783148 L 49.865258,56.499566 L 93.91584,35.355287 C 94.988614,31.259459 97.043291,28.145536 99.025707,24.95935 C 95.883032,25.166121 92.77377,25.27265 89.863186,24.783148 z "
       transform="translate(0,804.33069)"
       style="opacity:1;color:#000000;fill:#d80025;fill-opacity:1;fill-rule:evenodd;stroke:#000000;stroke-width:0.99921262;stroke-linecap:butt;stroke-linejoin:round;marker:none;marker-start:none;marker-mid:none;marker-end:none;stroke-miterlimit:4;stroke-dasharray:none;stroke-dashoffset:0;stroke-opacity:1;visibility:visible;display:inline;overflow:visible;enable-background:accumulate"
       id="path4189" />
    <path
       d="M 49.865258,56.499566 L 96.823178,28.219093"
       transform="translate(0,804.33069)"
       style="fill:none;fill-opacity:0.75;fill-rule:evenodd;stroke:#000000;stroke-width:1px;stroke-linecap:round;stroke-linejoin:miter;stroke-opacity:1"
       id="path4191" />
    <path
       d="M 120.60686,142.5005 L 130.94815,151.96963 L 141.41403,151.28437 C 141.91134,151.2518 143.37057,150.41471 142.41078,149.04168 L 137.9254,142.62509"
       transform="translate(0,804.33069)"
       style="opacity:1;color:#000000;fill:#ffffff;fill-opacity:1;fill-rule:evenodd;stroke:#000000;stroke-width:0.99921262;stroke-linecap:round;stroke-linejoin:round;marker:none;marker-start:none;marker-mid:none;marker-end:none;stroke-miterlimit:4;stroke-dasharray:none;stroke-dashoffset:0;stroke-opacity:1;visibility:visible;display:inline;overflow:visible;enable-background:accumulate"
       id="path4197" />
    <path
       d="M 127.12998,119.05139 C 138.02571,130.12104 160.50866,140.63002 179.81447,149.27009 C 169.74783,138.99605 158.18607,129.59416 147.49646,119.7562 L 137.24588,115.59393 L 142.28338,120.19671 C 149.23625,126.88441 156.25141,132.88684 163.51576,139.13846 C 155.23155,134.41932 147.44572,128.39195 140.34515,121.43012 L 128.64116,115.03862 L 127.12998,119.05139 z "
       transform="translate(0,804.33069)"
       style="opacity:1;color:#000000;fill:#000000;fill-opacity:1;fill-rule:evenodd;stroke:none;stroke-width:1px;stroke-linecap:butt;stroke-linejoin:miter;marker:none;marker-start:none;marker-mid:none;marker-end:none;stroke-miterlimit:4;stroke-dasharray:none;stroke-dashoffset:0;stroke-opacity:1;visibility:visible;display:inline;overflow:visible;enable-background:accumulate"
       id="path4201" />
    <path
       d="M 150.28783,119.42925 L 182.33426,149.47775 L 185.18865,149.27009 L 194.08104,157.12439 C 186.18211,148.36031 168.76825,131.05042 155.31895,117.88129 L 143.46983,113.15864 L 150.28783,119.42925 z "
       transform="translate(0,804.33069)"
       style="opacity:1;color:#000000;fill:#000000;fill-opacity:1;fill-rule:evenodd;stroke:none;stroke-width:1px;stroke-linecap:butt;stroke-linejoin:miter;marker:none;marker-start:none;marker-mid:none;marker-end:none;stroke-miterlimit:4;stroke-dasharray:none;stroke-dashoffset:0;stroke-opacity:1;visibility:visible;display:inline;overflow:visible;enable-background:accumulate"
       id="path5172" />
    <path
       d="M 157.79812,117.58172 L 196.98289,156.76649 L 198.47802,156.39271 L 161.41134,115.58822 L 152.06681,111.22744 L 157.79812,117.58172 z "
       transform="translate(0,804.33069)"
       style="opacity:1;color:#000000;fill:#000000;fill-opacity:1;fill-rule:evenodd;stroke:none;stroke-width:1px;stroke-linecap:butt;stroke-linejoin:miter;marker:none;marker-start:none;marker-mid:none;marker-end:none;stroke-miterlimit:4;stroke-dasharray:none;stroke-dashoffset:0;stroke-opacity:1;visibility:visible;display:inline;overflow:visible;enable-background:accumulate"
       id="path5174" />
    <path
       d="M 121.57075,224.9125 C 112.14393,219.97884 104.12305,220.41308 101.06715,226.94509 C 104.32689,227.78334 108.65746,225.18933 121.57075,224.9125 z "
       transform="translate(0,804.33069)"
       style="opacity:1;color:#000000;fill:#d80025;fill-opacity:1;fill-rule:evenodd;stroke:#000000;stroke-width:0.99921262;stroke-linecap:butt;stroke-linejoin:round;marker:none;marker-start:none;marker-mid:none;marker-end:none;stroke-miterlimit:4;stroke-dasharray:none;stroke-dashoffset:0;stroke-opacity:1;visibility:visible;display:inline;overflow:visible;enable-background:accumulate"
       id="path5178" />
    <path
       d="M 122.19008,150.05354 L 122.16427,175.58016 C 122.16213,177.70555 122.55896,176.99684 122.53806,178.32123 L 121.85279,221.74219 C 121.80548,224.73993 116.54157,224.86469 111.3582,224.7752 C 106.13078,224.68571 102.77758,227.95028 100.79643,232.45726 C 106.34793,227.66957 110.1293,231.30591 116.86904,227.82591 C 111.29744,229.58977 105.94207,230.82398 105.4064,236.94264 C 107.25652,235.22467 108.35699,234.67192 110.58148,234.69995 C 112.76203,234.72743 118.1404,228.48515 124.61265,228.5508 C 131.12894,228.61645 130.40797,229.92459 132.87529,229.65044 C 135.34705,229.37579 137.17713,230.33744 138.27651,231.57129 C 138.32057,226.99003 135.40459,225.19357 132.19408,225.23082 C 128.98378,225.26807 126.7173,225.09482 126.71195,221.36841 L 126.64966,177.94745 C 126.64909,177.55533 127.25401,176.85103 127.2972,176.12785 C 127.3404,175.40444 126.82186,174.66214 126.817,174.19451 L 126.56598,150.01781 L 122.19008,150.05354 z "
       transform="translate(0,804.33069)"
       style="opacity:1;color:#000000;fill:#d80025;fill-opacity:1;fill-rule:evenodd;stroke:#000000;stroke-width:0.99921262;stroke-linecap:butt;stroke-linejoin:round;marker:none;marker-start:none;marker-mid:none;marker-end:none;stroke-miterlimit:4;stroke-dasharray:none;stroke-dashoffset:0;stroke-opacity:1;visibility:visible;display:inline;overflow:visible;enable-background:accumulate"
       id="path5176" />
    <path
       d="M 134.61857,151.64882 L 148.97907,167.15462 C 149.5709,167.79366 149.50719,169.33547 148.62666,169.35716 L 94.973053,170.67867 C 90.796125,170.78155 78.956246,178.57204 76.648012,186.53688 C 78.05763,185.3622 79.122455,183.37138 80.876867,183.01284 C 81.904255,182.80288 83.433424,182.89098 84.27632,182.06952 L 91.625209,174.90753 L 84.27632,182.06952 C 82.33755,183.95899 82.797897,186.71119 84.31724,190.1446 C 84.559181,183.40525 88.61,186.26138 88.971486,183.25316 C 89.340353,180.18353 92.01247,178.75713 93.827738,177.11006 C 95.643006,175.46298 98.06113,175.68215 99.466213,177.46247 C 100.8713,179.24279 104.22368,181.13334 101.93305,185.74397 C 107.30722,181.69132 108.10013,178.51968 100.61153,174.73133 L 154.88184,174.20272 C 157.9623,174.17272 158.12636,169.79191 156.37957,167.94754 L 140.60945,151.29641"
       transform="translate(0,804.33069)"
       style="opacity:1;color:#000000;fill:#d80025;fill-opacity:1;fill-rule:evenodd;stroke:#000000;stroke-width:0.99921262;stroke-linecap:butt;stroke-linejoin:round;marker:none;marker-start:none;marker-mid:none;marker-end:none;stroke-miterlimit:4;stroke-dasharray:none;stroke-dashoffset:0;stroke-opacity:1;visibility:visible;display:inline;overflow:visible;enable-background:accumulate"
       id="path5180" />
    <path
       d="M 96.435647,94.158078 C 96.648342,103.71165 104.06868,110.41133 132.37288,121.24029 C 134.06688,121.8884 130.18181,117.78189 129.30079,116.37228 C 136.8012,121.27034 136.00821,122.59686 140.79991,122.0671 C 145.5812,121.53849 142.68531,120.09131 138.60624,116.19608 C 145.2401,120.94087 145.78305,121.20636 149.69768,121.09173 C 153.43626,120.98225 151.91289,118.91713 146.1486,114.21769 C 152.15063,119.53262 153.52349,120.02124 157.81141,118.97364 C 162.18242,117.90573 158.53393,116.31823 154.31393,113.53685 C 159.70428,117.24962 161.6646,118.43448 163.52501,117.01036 C 165.44049,115.5441 164.54696,115.17291 164.83768,114.34228"
       transform="translate(0,804.33069)"
       style="opacity:1;color:#000000;fill:#ffffff;fill-opacity:1;fill-rule:evenodd;stroke:#000000;stroke-width:0.99921262;stroke-linecap:round;stroke-linejoin:round;marker:none;marker-start:none;marker-mid:none;marker-end:none;stroke-miterlimit:4;stroke-dasharray:none;stroke-dashoffset:0;stroke-opacity:1;visibility:visible;display:inline;overflow:visible;enable-background:accumulate"
       id="path4199" />
    <path
       d="M 99.025707,829.29004 C 97.087481,831.31637 95.266724,835.60396 93.91584,839.68598 C 96.373309,840.04854 102.66968,840.20694 105.59681,839.75896 C 108.53585,839.30916 113.03951,836.29343 112.2044,828.65821"
       style="opacity:1;color:#000000;fill:#ffffff;fill-opacity:1;fill-rule:evenodd;stroke:#000000;stroke-width:0.99921262;stroke-linecap:round;stroke-linejoin:round;marker:none;marker-start:none;marker-mid:none;marker-end:none;stroke-miterlimit:4;stroke-dasharray:none;stroke-dashoffset:0;stroke-opacity:1;visibility:visible;display:inline;overflow:visible;enable-background:accumulate"
       id="path4195" />
    <path
       d="M 99.025707,24.95935 C 97.341515,19.012851 102.4302,18.536604 103.72268,19.777527 C 104.98363,20.988178 105.08706,25.519893 99.025707,24.95935 z "
       transform="translate(0,804.33069)"
       style="fill:#000000;fill-opacity:1;fill-rule:evenodd;stroke:none;stroke-width:1px;stroke-linecap:butt;stroke-linejoin:miter;stroke-opacity:1"
       id="path3218" />
  </g>
</svg>

<?xml version="1.0" encoding="UTF-8"?>
<svg version="1.0" viewBox="0 0 212.51 248.93" xmlns="http://www.w3.org/2000/svg" xmlns:cc="http://creativecommons.org/ns#" xmlns:dc="http://purl.org/dc/elements/1.1/" xmlns:rdf="http://www.w3.org/1999/02/22-rdf-syntax-ns#">
<metadata>
<rdf:RDF>
<cc:Work rdf:about="">
<dc:format>image/svg+xml</dc:format>
<dc:type rdf:resource="http://purl.org/dc/dcmitype/StillImage"/>
</cc:Work>
</rdf:RDF>
</metadata>
<g transform="translate(-13.644 -801.31)">
<path d="m14.644 802.31 3.8275 160.79c2.7339 114.85 200.13 114.85 202.86 0l3.8275-160.79h-210.51z" fill="#008bd1" fill-rule="evenodd" stroke="#000" stroke-width="2"/>
<path transform="translate(0 804.33)" d="m81.405 180.19c-2.1283 0.55336-2.6037-0.25927-3.1245-1.8049-0.49425-1.4667-2.4986 0.49395-3.1306 2.5097-1.3233-8.5873 13.421-9.3387 19.558-10.22" color="#000000" fill="#d80025" fill-rule="evenodd" stroke="#000" stroke-linejoin="round" stroke-width=".99921"/>
<path d="m105.6 839.76c-2.2604 14.963-25.654 28.521-33.178 40.454 1.0734-0.09101 2.4525-1.0926 3.6486-1.9382-2.7476 5.5941-4.5546 10.682-6.1155 16.211 0.76962-0.17916 1.9753-1.3551 2.6203-2.0326-1.681 4.2584-1.4307 18.422-0.68212 22.12 0.954-1.9898 1.4096-4.2289 2.1144-6.3433 1.5181 7.5234 4.8429 13.178 8.1053 19.206l0.1762-5.9909c4.3961 7.3329 9.9758 13.981 16.739 19.382-0.88101-1.9382-1.2014-3.3158-2.0824-5.254 7.016 5.7898 14.219 9.6485 21.92 12.137v5.327c0 1.0572 0.77781 1.1778 1.835 1.1818l8.5521 0.03206 11.62-2.789c14.817 1.7694 29.749 2.7455 44.67 2.2283 2.0681 3.0791 5.7559 5.2861 8.6339 7.9291 1.8208-0.35241 3.6415-0.70481 5.4623-1.0572-15.664-21.014-37.784-47.241-54.406-60.427-16.622-13.186-23.837-24.446-45.325-18.688-1.9161 0.51342-2.4489-1.2252-1.5858-2.2906 6.6451-8.2025 17.867-24.359 22.018-34.443 4.1296-10.031 0.23515-25.353-10.565-27.932-10.741-2.5648-19.504 3.862-19.911 12.334 3.1423 0.93974 6.0202 0.73417 9.1625 0.1762" color="#000000" fill="#fff" fill-rule="evenodd" stroke="#000" stroke-linejoin="round" stroke-width=".99921"/>
<path transform="translate(0 804.33)" d="m89.863 24.783-39.998 31.716 44.051-21.144c1.0728-4.0958 3.1275-7.2098 5.1099-10.396-3.1427 0.20677-6.2519 0.3133-9.1625-0.1762z" color="#000000" fill="#d80025" fill-rule="evenodd" stroke="#000" stroke-linejoin="round" stroke-width=".99921"/>
<path transform="translate(0 804.33)" d="m49.865 56.5 46.958-28.28" fill="none" stroke="#000" stroke-linecap="round" stroke-width="1px"/>
<path transform="translate(0 804.33)" d="m120.61 142.5 10.341 9.4691 10.466-0.68526c0.49731-0.03257 1.9565-0.86966 0.99675-2.2427l-4.4854-6.4166" color="#000000" fill="#fff" fill-rule="evenodd" stroke="#000" stroke-linecap="round" stroke-linejoin="round" stroke-width=".99921"/>
<path transform="translate(0 804.33)" d="m127.13 119.05c10.896 11.07 33.379 21.579 52.684 30.219-10.067-10.274-21.628-19.676-32.318-29.514l-10.251-4.1623 5.0375 4.6028c6.9529 6.6877 13.968 12.69 21.232 18.942-8.2842-4.7191-16.07-10.747-23.171-17.708l-11.704-6.3915-1.5112 4.0128z" color="#000000" fill-rule="evenodd"/>
<path transform="translate(0 804.33)" d="m150.29 119.43 32.046 30.048 2.8544-0.20766 8.8924 7.8543c-7.8989-8.7641-25.313-26.074-38.762-39.243l-11.849-4.7226 6.818 6.2706z" color="#000000" fill-rule="evenodd"/>
<path transform="translate(0 804.33)" d="m157.8 117.58 39.185 39.185 1.4951-0.37378-37.067-40.804-9.3445-4.3608 5.7313 6.3543z" color="#000000" fill-rule="evenodd"/>
<path transform="translate(0 804.33)" d="m121.57 224.91c-9.4268-4.9337-17.448-4.4994-20.504 2.0326 3.2597 0.83825 7.5903-1.7558 20.504-2.0326z" color="#000000" fill="#d80025" fill-rule="evenodd" stroke="#000" stroke-linejoin="round" stroke-width=".99921"/>
<path transform="translate(0 804.33)" d="m122.19 150.05-0.02581 25.527c-0.00214 2.1254 0.39469 1.4167 0.37379 2.7411l-0.68527 43.421c-0.04731 2.9977-5.3112 3.1225-10.495 3.033-5.2274-0.08949-8.5806 3.1751-10.562 7.6821 5.5515-4.7877 9.3329-1.1514 16.073-4.6314-5.5716 1.7639-10.927 2.9981-11.463 9.1167 1.8501-1.718 2.9506-2.2707 5.1751-2.2427 2.1806 0.02748 7.5589-6.2148 14.031-6.1492 6.5163 0.06565 5.7953 1.3738 8.2626 1.0996 2.4718-0.27465 4.3018 0.687 5.4012 1.9208 0.04406-4.5813-2.8719-6.3777-6.0824-6.3405-3.2103 0.03725-5.4768-0.136-5.4821-3.8624l-0.06229-43.421c-5.7e-4 -0.39212 0.60435-1.0964 0.64754-1.8196 0.0432-0.72341-0.47534-1.4657-0.4802-1.9333l-0.25102-24.177-4.3759 0.03573z" color="#000000" fill="#d80025" fill-rule="evenodd" stroke="#000" stroke-linejoin="round" stroke-width=".99921"/>
<path transform="translate(0 804.33)" d="m134.62 151.65 14.36 15.506c0.59183 0.63904 0.52812 2.1808-0.35241 2.2025l-53.654 1.3215c-4.1769 0.10288-16.017 7.8934-18.325 15.858 1.4096-1.1747 2.4744-3.1655 4.2289-3.524 1.0274-0.20996 2.5566-0.12186 3.3995-0.94332l7.3489-7.162-7.3489 7.162c-1.9388 1.8895-1.4784 4.6417 0.04092 8.0751 0.24194-6.7394 4.2928-3.8832 4.6542-6.8914 0.36887-3.0696 3.041-4.496 4.8563-6.1431 1.8153-1.6471 4.2334-1.4279 5.6385 0.35241 1.4051 1.7803 4.7575 3.6709 2.4668 8.2815 5.3742-4.0526 6.1671-7.2243-1.3215-11.013l54.27-0.52861c3.0805-0.03 3.2445-4.4108 1.4977-6.2552l-15.77-16.651" color="#000000" fill="#d80025" fill-rule="evenodd" stroke="#000" stroke-linejoin="round" stroke-width=".99921"/>
<path transform="translate(0 804.33)" d="m96.436 94.158c0.2127 9.5536 7.633 16.253 35.937 27.082 1.694 0.64811-2.1911-3.4584-3.0721-4.868 7.5004 4.8981 6.7074 6.2246 11.499 5.6948 4.7813-0.52861 1.8854-1.9758-2.1937-5.871 6.6339 4.7448 7.1768 5.0103 11.091 4.8956 3.7386-0.10948 2.2152-2.1746-3.5491-6.874 6.002 5.3149 7.3749 5.8036 11.663 4.756 4.371-1.0679 0.72252-2.6554-3.4975-5.4368 5.3904 3.7128 7.3507 4.8976 9.2111 3.4735 1.9155-1.4663 1.022-1.8374 1.3127-2.6681" color="#000000" fill="#fff" fill-rule="evenodd" stroke="#000" stroke-linecap="round" stroke-linejoin="round" stroke-width=".99921"/>
<path d="m99.026 829.29c-1.9382 2.0263-3.759 6.3139-5.1099 10.396 2.4575 0.36256 8.7538 0.52096 11.681 0.07298 2.939-0.4498 7.4427-3.4655 6.6076-11.101" color="#000000" fill="#fff" fill-rule="evenodd" stroke="#000" stroke-linecap="round" stroke-linejoin="round" stroke-width=".99921"/>
<path transform="translate(0 804.33)" d="m99.026 24.959c-1.6842-5.9465 3.4045-6.4227 4.697-5.1818 1.261 1.2107 1.3644 5.7424-4.697 5.1818z" fill-rule="evenodd"/>
</g>
</svg>
